X:21003
T:Upton-Upon-Severn Stick Dance
R:Jig
C:Trad. Morris
O:England, Upton-Upon-Severn
Z:Paul Hardy's Session Tunebook 2021 (see www.paulhardy.net). Creative Commons cc by-nc-sa licenced.
M:6/8
L:1/8
Q:3/8=90
K:G
d|"G"dBB BAG|"Am"AGA "Em"BGE|"G"DGG GBd|"Em"edB "D7"A2d|
"G"dBB BAG|"Am"AGA "Em"BGE|"G"DGG GAB|"D7"AGF "G"G2:|
|:G|"G"GBd g2d|"Em"edc BAG|"G"GBd g2d|"Em"edB "D7"A2G|
"G"GBd g2d|"C"edc "G"Bcd|"C"ege "G"dBG|"D7"AGF "G"G2:|

